X:1
T:Un Moto di Gioja 
T:K.579 Le Nozze di Figaro
T:W.A. Mozart
T:Lorenzo Da Pontemoto
T:Composed 1789 Public Domain This MuseScore edition was transcribed by E. van Eerten from a scanned pdf version on the IMSLP.org website Version Wolfgang Amadeus Mozarts Werke, Serie VII: Lieder und Kanons (pp.75-76)' Leipzig: Breitkopf &amp; Härtel, 1877. Plate W.A.M. 579.
T:Composed 1789 Public Domain This MuseScore edition was transcribed by E. van Eerten from a scanned pdf version on the IMSLP.org website Version Wolfgang Amadeus Mozarts Werke, Serie VII: Lieder und Kanons (pp.75-76)' Leipzig: Breitkopf &amp; Härtel, 1877. Plate W.A.M. 579.
T:Composed 1789 Public Domain This MuseScore edition was transcribed by E. van Eerten from a scanned pdf version on the IMSLP.org website Version Wolfgang Amadeus Mozarts Werke, Serie VII: Lieder und Kanons (pp.75-76)' Leipzig: Breitkopf &amp; Härtel, 1877. Plate W.A.M. 579.
T:Composed 1789 Public Domain This MuseScore edition was transcribed by E. van Eerten from a scanned pdf version on the IMSLP.org website Version Wolfgang Amadeus Mozarts Werke, Serie VII: Lieder und Kanons (pp.75-76)' Leipzig: Breitkopf &amp; Härtel, 1877. Plate W.A.M. 579.
T:Composed 1789 Public Domain This MuseScore edition was transcribed by E. van Eerten from a scanned pdf version on the IMSLP.org website Version Wolfgang Amadeus Mozarts Werke, Serie VII: Lieder und Kanons (pp.75-76)' Leipzig: Breitkopf &amp; Härtel, 1877. Plate W.A.M. 579.
T:Composed 1789 Public Domain This MuseScore edition was transcribed by E. van Eerten from a scanned pdf version on the IMSLP.org website Version Wolfgang Amadeus Mozarts Werke, Serie VII: Lieder und Kanons (pp.75-76)' Leipzig: Breitkopf &amp; Härtel, 1877. Plate W.A.M. 579.
Z:Composed 1789 Public Domain
Z:This MuseScore edition was transcribed by E. van Eerten from a scanned pdf version on the IMSLP.org website
Z:Version Wolfgang Amadeus Mozarts Werke, Serie VII: Lieder und Kanons (pp.75-76)'
Z:Leipzig: Breitkopf & Härtel, 1877. Plate W.A.M. 579.
%%score 1 { ( 2 5 ) | ( 3 4 ) }
L:1/8
Q:1/4=100
M:3/8
K:G
V:1 treble nm="Soprano"
V:2 treble nm="Piano"
V:5 treble 
V:3 bass 
V:4 bass 
V:1
"^Allegretto moderato""^Allegretto moderato""^Allegretto moderato""^Allegretto moderato""^Allegretto moderato" z | %1
w: |
[Q:1/4=100]"^Allegretto moderato" z3 | z3 | z3 | z3 | z3 | z3 | z3 | z z"^Susanna" G | G A B | %10
w: |||||||Un|mo- to di|
 G A B | c3/2 d/ c | B G d | d (^c/d/) (e/d/) | B (^A/B/) (=c/B/) | %15
w: gio- ja mi|sen- to nel|pet- to,~che an-|nun- zia * di- *|le- to * in *|
 =A (!trill(!TA/G/) (A/!trill)!B/) | G2 z | z3 | z3 | z3 | z3 | z3 | z3 | z3 | z z (f/e/) | %25
w: mez- zo il ti- *|mor!||||||||Spe- *|
 d d (d/^c/) | B B (B/A/) | G (G/F/) (G/A/) | F F (f/e/) | d d z | z z (B/A/) | G G G | %32
w: riam~che in con- *|ten- to fi- *|ni- sca * l'af- *|fan- no, non *|sempre, *|non *|sempre è ti-|
 (!fermata!g2 (g/)e/) | ^c !fermata!z z | z3 | z z (f/d/) | A B ^c | d2 z | z z (f/d/) | A B ^c | %40
w: ran- * *|no||il *|fa- to~ed a-|mor,|il *|fa- to~ed a-|
 d3- | d3- | d3- | (!fermata!d/e/d/B/) (=c/A/) | G A B | G A B | c3/2 d/ c | B G d | %48
w: mor.|_||* * * * Un *|mo- to di|gio- ja mi|seu- to nel|pet- to,~che an-|
 d (g/f/) (g/d/) | B (d/^c/) (d/B/) | A (A/B/) (=c/d/) | G2 z | z3 | z z (e/>d/) | A A (e/>d/) | %55
w: nun- zia * di- *|let- to * in *|mez- zo il ti- *|mor.||Spe- *|riam~che in cou- *|
 B B z | z3 | z z (e/>d/) | A (e/d/) (e/d/) | (c/B/) B d | e g z | z z ^G | A c e | %63
w: ten- to||fi- *|ni- sca * l'af- *|fan- * no, non|sempre, *|non|sempre è ti-|
 !fermata!D2 (F/E/) | D !fermata!z (A/^A/) | B (d/^c/) (d/B/) | G (B/^A/) (B/G/) | D E F | G2 z | %69
w: ran- * *|no, non *|sem- pre è ti- *|ran- no * il *|fa- to~ed a-|mor,|
 z z (G/B/) | d (d/B/) (c/A/) | (g/f/e/d/c/B/ | A/G/F/E/) (D/C/) | (B,DG) | (Bc) A | (d3 | %76
w: il *|fa- to ed a- *|mor, _ _ _ _ _|_ _ _ _ il *|fa- * *|to ed a-|mor,|
 e2) (f/g/) | (gdB) | (cA) d | G2 z | z3 | z3 | z3 | z2 |] %84
w: _ il *|fa- * *|to ed a-|mor.|||||
V:2
!p! .d | .d (^c/d/e/d/) | .B (^A/B/c/B/) | .=A (!trill(!TA/G/A/!trill)!B/) | (GD)!f! .d | %5
 .d (g/f/g/d/) | .B (d/^c/d/B/) | .A (A/B/=c/d/) | G z z | [Gg][Aa][Bb] | [Gg][Aa][Bb] | %11
 [cc']>[dd'][cc'] | [Bb][Gg] z | z [G,B,D][G,B,D] | z [G,B,D][G,B,D] | z [F,CD][F,CD] | %16
 [E,G,B,] z A | (Ad^c) | (Bed) | (^c/d/e/f/g/a/) | (gf) (d'/^c'/ | d'/^c'/).b/.a/.g/.f/ | %22
 .b/.a/.g/.f/.e/.d/ | .^c/.d/.e/.f/(g/e/) | d z z | z ([A,D][DA]) | z ([B,D][DB]) | %27
 z ([^CE][E^c]) | z ([DF][Fd]) | z z d'/^c'/ | ^c'/b/b B/A/ | G!<(![EG]!<)![DEG] | %32
!p! !fermata![^CEG]3- | [CEG] !fermata!z!p! (e/^e/) | .f (a/^g/a/f/) | .d (f/^e/f/d/) | .A.B.^c | %37
 .d (^e/f/a/f/) | .d (^c/d/f/d/) | .A.B.^c | .d (^c/d/f/d/) | .a (^e/f/a/f/) | .=c' .[fc'].[fc'] | %43
 .[fc'] z !fermata!z | [Gg][Aa][Bb] | [Gg][Aa][Bb] | [cc']>[dd'][cc'] | [Bb][Gg] z | %48
 z [G,G,B,D][G,B,D] | z [G,B,D][G,B,D] | z [F,CD][F,CD] | [G,B,D] z!f! ([Gg]/>[cf]/) | %52
 .[cf]!p! ([ac']/[gb]/[ac']/[fa]/) | .[bd'].[bd'] z | [A,CD] z z | [B,D] z!f! ([Gg]/>[cf]/) | %56
 .[cf]!p! ([ac']/[bd']/[ac']/[fa]/) | .[bd'].[bd'] z | [A,CD] z z | [B,D] z d | (eg) b | %61
 (c'e') [B,E^G] | [CEA]!<(!([EAc][Ace])!<)! |!p! !fermata![A,CD]3- | [A,CD] !fermata!z z | %65
!p! z [G,B,D][G,B,D] | z [G,B,D][G,B,D] | z [A,CD][A,CD] | z (^a/b/d'/b/) | .g (f/g/b/g/) | %70
 d z [DFA] | [DBd]3 | [EAc]3 | [GB]3- | [GB][Ac][FA] | (g/f/e/d/!<(!c/B/) | (A/G/F/E/D/C/) | %77
 (B,DG) | (A/B/c/A/d/!<)!F/) |!f! G (f/g/c'/b/) | .a (^g/a/^c'/d'/) | .=g!p! (F/G/c/B/) | %82
 A (^G/A/^c/d/) | =G z |] %84
V:3
 z | z [B,D][B,D] | z [B,D][B,D] | z [F,C][F,C] | B,2 z | [G,B,D][G,B,D][G,B,D] | %6
 [G,B,D][G,B,D][G,B,D] | [D,F,C][D,F,C][D,F,C] | [G,B,] z z | B,CD | B,CD | E2 F | [G,G] z z | %13
 G,,2 z | G,,2 z | D,,2 z | G,, z z | (F,A,B,) | (G,B,E) | (A,^CE) | (B,DF) | (F,A,D) | (G,B,E) | %23
 A, z [A,^CG] | [DF].D, z | F,3 | G,3 | A,3 | B,2 z | z z[K:treble] [Fd] | [Gd] z[K:bass] ^D, | %31
 E,^C,B,, | [A,,^C,E,A,]3- | [A,,C,E,A,] !fermata!z z |[K:treble] D[FA][FA] | D[FA][FA] | %36
 A,[GA][GA] | D[FA][FA] | D[FA][FA] | A,[GA][GA] | .[DFA][K:bass] (^C,/D,/F,/D,/) | %41
 .A, (^E,/F,/A,/F,/) | .C[K:treble] .[DA].[DA] | .[DA] z !fermata!z |[K:bass] B,CD | B,CD | E2 F | %47
 [G,G] z z | G,,2 z | G,,2 z | D,,2 z | G,, z (G,/>A,/) | .A, D[CD] | .[B,G].[B,G] z | %54
 [F,,F,] z z | [G,,G,] z G,/>A,/ | .A, D[CD] | .[B,G].[B,G] z | [F,,F,,F,] z z | [G,,G,] z B, | %60
 (CE)[K:treble] ^G | (Ac)[K:bass] E, | C,([A,,A,][G,,G,]) | !fermata![F,,F,]3- | %64
 [F,,F,] !fermata!z z | G,,2 z | G,,2 z | D,,2 z | G,[B,D][B,D] | G,[B,D][B,D] | D, z C, | B,,3 | %72
 C,3 | D,3- | D,2 C, | [B,,D,G,]3 | [C,E,G,]3 | [D,G,]3 | D,3 | G,[B,D][B,D] | D,[F,C][F,C] | %81
 [G,B,] z z | [D,F,C] z z | [G,B,] z |] %84
V:4
 x | G,3 | G,3 | D,3 | G,2 z | x3 | x3 | x3 | x3 | G,3 | G,3 | G,3 | x3 | x3 | x3 | x3 | x3 | x3 | %18
 x3 | x3 | x3 | x3 | x3 | x3 | x3 | x3 | x3 | x3 | x3 | x2[K:treble] x | x2[K:bass] x | x3 | x3 | %33
 x3 |[K:treble] x3 | x3 | x3 | x3 | x3 | x3 | x[K:bass] x2 | x3 | x[K:treble] x2 | x3 | %44
[K:bass] G,3 | G,3 | G,3 | x3 | x3 | x3 | x3 | x x .D | .D x2 | x3 | x3 | x x .D | .D x x | x3 | %58
 x3 | x3 | x x[K:treble] e | e2[K:bass] x | x3 | x3 | x3 | x3 | x3 | x3 | x3 | x3 | x3 | x3 | x3 | %73
 x3 | x3 | x3 | x3 | x3 | F,2 A, | x3 | x3 | x3 | x3 | x2 |] %84
V:5
 x | x3 | x3 | x3 | x3 | x3 | x3 | x3 | x3 | x3 | x3 | x3 | x3 | x3 | x3 | x3 | x3 | x3 | x3 | x3 | %20
 x3 | x3 | x3 | x3 | x3 | x3 | x3 | x3 | x3 | z z a | g z F | x3 | x3 | x3 | x3 | x3 | x3 | x3 | %38
 x3 | x3 | x3 | x3 | x3 | x3 | x3 | x3 | x3 | x3 | x3 | x3 | x3 | x3 | x3 | x3 | x3 | x3 | x3 | %57
 x3 | x3 | z z G | G2 x | x3 | x3 | x3 | x3 | x3 | x3 | x3 | x3 | x3 | x3 | x3 | x3 | D3- | D3 | %75
 x3 | x3 | x3 | x3 | x3 | x3 | x3 | x3 | x2 |] %84

